mediabuilder/img/logo-white.svg

<svg width="220" height="30" viewBox="0 0 220 30" fill="none" xmlns="http://www.w3.org/2000/svg">
<g clip-path="url(#clip0_545:18055)">
<path d="M26.4788 29.7537L26.394 16.3119L19.9544 27.099H15.5483L9.1087 16.7754V29.7537H0V0.257568H8.21901L17.8785 15.9748L27.2837 0.257568H35.5027L35.5875 29.7537H26.4788Z" fill="#FF9900"/>
<path d="M63.8075 22.2532V29.7537H39.1505V0.257568H63.2568V7.75801H48.9794V11.2133H61.5198V18.3766H48.9794V22.2532H63.8075Z" fill="#FF9900"/>
<path d="M66.3856 0.257568H81.0019C84.3064 0.257568 87.2156 0.861537 89.7293 2.06947C92.2712 3.24932 94.2342 4.94885 95.6181 7.16808C97.0303 9.38731 97.7365 11.9998 97.7365 15.0056C97.7365 18.0114 97.0303 20.6239 95.6181 22.8431C94.2342 25.0624 92.2712 26.776 89.7293 27.9839C87.2156 29.1637 84.3064 29.7537 81.0019 29.7537H66.3856V0.257568ZM80.5782 22.0004C82.7248 22.0004 84.4335 21.3964 85.7045 20.1885C87.0037 18.9525 87.6533 17.2248 87.6533 15.0056C87.6533 12.7864 87.0037 11.0728 85.7045 9.86487C84.4335 8.62884 82.7248 8.01083 80.5782 8.01083H76.384V22.0004H80.5782Z" fill="#FF9900"/>
<path d="M100.116 0.257568H110.115V29.7537H100.116V0.257568Z" fill="#FF9900"/>
<path d="M133.865 24.6129H122.596L120.605 29.7537H110.437L123.401 0.257568H133.23L146.194 29.7537H135.857L133.865 24.6129ZM131.112 17.4496L128.231 10.0334L125.35 17.4496H131.112Z" fill="#FF9900"/>
<path d="M143.822 0.212578H146.601V12.7547H154.423V15.0931H143.822V0.212578Z" fill="#00CCC0"/>
<path d="M168.037 15.3057C166.512 15.3057 165.137 14.9797 163.912 14.3278C162.686 13.6617 161.725 12.7476 161.026 11.5855C160.328 10.4093 159.979 9.09837 159.979 7.65283C159.979 6.2073 160.328 4.90348 161.026 3.74138C161.725 2.56512 162.686 1.65103 163.912 0.99912C165.137 0.33304 166.512 0 168.037 0C169.561 0 170.936 0.33304 172.162 0.99912C173.387 1.65103 174.349 2.55803 175.047 3.72013C175.745 4.88222 176.095 6.19313 176.095 7.65283C176.095 9.11254 175.745 10.4234 175.047 11.5855C174.349 12.7476 173.387 13.6617 172.162 14.3278C170.936 14.9797 169.561 15.3057 168.037 15.3057ZM168.037 12.8823C169.034 12.8823 169.932 12.6626 170.73 12.2233C171.528 11.7698 172.155 11.1462 172.611 10.3526C173.067 9.54478 173.295 8.64487 173.295 7.65283C173.295 6.6608 173.067 5.76797 172.611 4.97434C172.155 4.16654 171.528 3.54298 170.73 3.10365C169.932 2.65015 169.034 2.4234 168.037 2.4234C167.039 2.4234 166.142 2.65015 165.344 3.10365C164.546 3.54298 163.919 4.16654 163.463 4.97434C163.007 5.76797 162.779 6.6608 162.779 7.65283C162.779 8.64487 163.007 9.54478 163.463 10.3526C163.919 11.1462 164.546 11.7698 165.344 12.2233C166.142 12.6626 167.039 12.8823 168.037 12.8823Z" fill="#00CCC0"/>
<path d="M193.958 7.48277H196.587V13.4137C195.818 14.0231 194.92 14.4908 193.894 14.8167C192.868 15.1427 191.814 15.3057 190.731 15.3057C189.206 15.3057 187.831 14.9797 186.606 14.3278C185.38 13.6617 184.419 12.7476 183.721 11.5855C183.022 10.4234 182.673 9.11254 182.673 7.65283C182.673 6.19313 183.022 4.88222 183.721 3.72013C184.419 2.55803 185.38 1.65103 186.606 0.99912C187.846 0.33304 189.235 0 190.774 0C192.028 0 193.167 0.205493 194.193 0.616478C195.219 1.02746 196.081 1.62977 196.78 2.4234L195.027 4.12403C193.887 2.99027 192.512 2.4234 190.902 2.4234C189.848 2.4234 188.907 2.64306 188.081 3.08239C187.268 3.52172 186.627 4.1382 186.157 4.93183C185.701 5.72545 185.473 6.63246 185.473 7.65283C185.473 8.64487 185.701 9.5377 186.157 10.3313C186.627 11.125 187.268 11.7485 188.081 12.202C188.907 12.6555 189.84 12.8823 190.881 12.8823C192.049 12.8823 193.075 12.6272 193.958 12.117V7.48277Z" fill="#00CCC0"/>
<path d="M211.943 15.3057C210.418 15.3057 209.043 14.9797 207.818 14.3278C206.593 13.6617 205.631 12.7476 204.933 11.5855C204.234 10.4093 203.885 9.09837 203.885 7.65283C203.885 6.2073 204.234 4.90348 204.933 3.74138C205.631 2.56512 206.593 1.65103 207.818 0.99912C209.043 0.33304 210.418 0 211.943 0C213.468 0 214.843 0.33304 216.068 0.99912C217.294 1.65103 218.255 2.55803 218.954 3.72013C219.652 4.88222 220.001 6.19313 220.001 7.65283C220.001 9.11254 219.652 10.4234 218.954 11.5855C218.255 12.7476 217.294 13.6617 216.068 14.3278C214.843 14.9797 213.468 15.3057 211.943 15.3057ZM211.943 12.8823C212.94 12.8823 213.838 12.6626 214.636 12.2233C215.434 11.7698 216.061 11.1462 216.517 10.3526C216.973 9.54478 217.201 8.64487 217.201 7.65283C217.201 6.6608 216.973 5.76797 216.517 4.97434C216.061 4.16654 215.434 3.54298 214.636 3.10365C213.838 2.65015 212.94 2.4234 211.943 2.4234C210.946 2.4234 210.048 2.65015 209.25 3.10365C208.452 3.54298 207.825 4.16654 207.369 4.97434C206.913 5.76797 206.685 6.6608 206.685 7.65283C206.685 8.64487 206.913 9.54478 207.369 10.3526C207.825 11.1462 208.452 11.7698 209.25 12.2233C210.048 12.6626 210.946 12.8823 211.943 12.8823Z" fill="#00CCC0"/>
<path d="M156.011 24.1197C156.651 24.3558 157.146 24.6996 157.497 25.1511C157.848 25.6027 158.023 26.1466 158.023 26.7828C158.023 27.727 157.631 28.4607 156.847 28.9841C156.063 29.4973 154.928 29.7538 153.442 29.7538H147.344V18.9783H153.132C154.577 18.9783 155.665 19.2348 156.398 19.748C157.141 20.2611 157.512 20.9435 157.512 21.7953C157.512 22.2982 157.383 22.7497 157.125 23.1499C156.878 23.5502 156.506 23.8734 156.011 24.1197ZM150.934 21.5182V23.1192H152.637C153.431 23.1192 153.829 22.8523 153.829 22.3187C153.829 21.785 153.431 21.5182 152.637 21.5182H150.934ZM153.132 27.2139C153.937 27.2139 154.339 26.9316 154.339 26.3672C154.339 25.8028 153.937 25.5206 153.132 25.5206H150.934V27.2139H153.132Z" fill="#FAFAFA"/>
<path d="M164.499 30.0001C162.838 30.0001 161.543 29.5537 160.614 28.6609C159.686 27.768 159.222 26.516 159.222 24.9048V18.9783H162.874V24.7971C162.874 25.5873 163.013 26.162 163.292 26.5212C163.581 26.8803 163.994 27.0599 164.53 27.0599C165.067 27.0599 165.474 26.8803 165.753 26.5212C166.042 26.162 166.186 25.5873 166.186 24.7971V18.9783H169.777V24.9048C169.777 26.516 169.313 27.768 168.384 28.6609C167.455 29.5537 166.16 30.0001 164.499 30.0001Z" fill="#FAFAFA"/>
<path d="M171.451 18.9783H175.104V29.7538H171.451V18.9783Z" fill="#FAFAFA"/>
<path d="M176.862 18.9783H180.515V26.9368H185.406V29.7538H176.862V18.9783Z" fill="#FAFAFA"/>
<path d="M186.415 18.9783H191.754C192.961 18.9783 194.024 19.1989 194.943 19.6402C195.871 20.0712 196.588 20.6921 197.094 21.5028C197.61 22.3136 197.868 23.268 197.868 24.366C197.868 25.4641 197.61 26.4185 197.094 27.2293C196.588 28.04 195.871 28.666 194.943 29.1073C194.024 29.5383 192.961 29.7538 191.754 29.7538H186.415V18.9783ZM191.599 26.9214C192.384 26.9214 193.008 26.7007 193.472 26.2595C193.947 25.8079 194.184 25.1768 194.184 24.366C194.184 23.5553 193.947 22.9293 193.472 22.488C193.008 22.0365 192.384 21.8107 191.599 21.8107H190.067V26.9214H191.599Z" fill="#FAFAFA"/>
<path d="M208.209 27.0137V29.7538H199.201V18.9783H208.008V21.7183H202.792V22.9806H207.373V25.5975H202.792V27.0137H208.209Z" fill="#FAFAFA"/>
<path d="M214.258 27.0445H213.268V29.7538H209.615V18.9783H214.831C215.832 18.9783 216.704 19.1425 217.447 19.4709C218.19 19.7993 218.762 20.2713 219.165 20.8871C219.567 21.5028 219.768 22.2212 219.768 23.0422C219.768 23.8119 219.593 24.4841 219.242 25.0588C218.891 25.6335 218.386 26.0901 217.725 26.4288L220.001 29.7538H216.1L214.258 27.0445ZM216.085 23.0422C216.085 22.642 215.961 22.3341 215.713 22.1186C215.466 21.8928 215.094 21.7799 214.599 21.7799H213.268V24.3045H214.599C215.094 24.3045 215.466 24.1967 215.713 23.9812C215.961 23.7554 216.085 23.4424 216.085 23.0422Z" fill="#FAFAFA"/>
</g>
<defs>
<clipPath id="clip0_545:18055">
<rect width="220" height="30" fill="white"/>
</clipPath>
</defs>
</svg>

<svg width="220" height="30" fill="none" xmlns="http://www.w3.org/2000/svg"><g clip-path="url(#clip0_545:18055)"><path d="M26.479 29.754l-.085-13.442-6.44 10.787h-4.406l-6.44-10.324v12.979H0V.258h8.219l9.66 15.717L27.283.258h8.219l.084 29.496H26.48zm37.328-7.501v7.5H39.15V.259h24.107v7.5H48.979v3.455h12.54v7.164H48.98v3.876h14.828zM66.386.258h14.616c3.304 0 6.214.604 8.727 1.811 2.542 1.18 4.505 2.88 5.89 5.1 1.411 2.218 2.118 4.83 2.118 7.837 0 3.005-.707 5.618-2.119 7.837-1.384 2.22-3.347 3.933-5.889 5.14-2.513 1.18-5.423 1.77-8.727 1.77H66.386V.259zM80.578 22c2.147 0 3.855-.604 5.126-1.811 1.3-1.236 1.95-2.964 1.95-5.183 0-2.22-.65-3.933-1.95-5.141-1.27-1.236-2.98-1.854-5.126-1.854h-4.194V22h4.194zM100.116.258h9.999v29.496h-9.999V.258zm33.749 24.355h-11.269l-1.991 5.14h-10.168L123.401.259h9.829l12.964 29.496h-10.337l-1.992-5.141zm-2.753-7.163l-2.881-7.417-2.881 7.417h5.762z" fill="#F90"/><path d="M143.822.213h2.779v12.542h7.822v2.338h-10.601V.213zm24.215 15.093c-1.525 0-2.9-.326-4.125-.978a7.447 7.447 0 01-2.886-2.742c-.698-1.177-1.047-2.488-1.047-3.933 0-1.446.349-2.75 1.047-3.912A7.248 7.248 0 01163.912 1c1.225-.666 2.6-.999 4.125-.999 1.524 0 2.899.333 4.125 1a7.292 7.292 0 012.885 2.72c.698 1.162 1.048 2.473 1.048 3.933s-.35 2.77-1.048 3.933a7.444 7.444 0 01-2.885 2.742c-1.226.652-2.601.978-4.125.978zm0-2.424c.997 0 1.895-.22 2.693-.659a4.954 4.954 0 001.881-1.87c.456-.808.684-1.708.684-2.7 0-.992-.228-1.885-.684-2.679a4.763 4.763 0 00-1.881-1.87c-.798-.454-1.696-.68-2.693-.68-.998 0-1.895.226-2.693.68a4.763 4.763 0 00-1.881 1.87c-.456.794-.684 1.687-.684 2.679 0 .992.228 1.892.684 2.7a4.954 4.954 0 001.881 1.87c.798.44 1.695.66 2.693.66zm25.921-5.399h2.629v5.93c-.769.61-1.667 1.078-2.693 1.404-1.026.326-2.08.489-3.163.489-1.525 0-2.9-.326-4.125-.978a7.437 7.437 0 01-2.885-2.742c-.699-1.163-1.048-2.473-1.048-3.933s.349-2.77 1.048-3.933A7.285 7.285 0 01186.606 1c1.24-.667 2.629-1 4.168-1 1.254 0 2.393.205 3.419.616a6.719 6.719 0 012.587 1.807l-1.753 1.701c-1.14-1.134-2.515-1.7-4.125-1.7-1.054 0-1.995.22-2.821.658a4.907 4.907 0 00-1.924 1.85c-.456.793-.684 1.7-.684 2.72 0 .993.228 1.886.684 2.68a5.06 5.06 0 001.924 1.87c.826.454 1.759.68 2.8.68 1.168 0 2.194-.255 3.077-.765V7.483zm17.985 7.823c-1.525 0-2.9-.326-4.125-.978a7.444 7.444 0 01-2.885-2.742c-.699-1.177-1.048-2.488-1.048-3.933 0-1.446.349-2.75 1.048-3.912A7.246 7.246 0 01207.818 1c1.225-.666 2.6-.999 4.125-.999s2.9.333 4.125 1a7.294 7.294 0 012.886 2.72c.698 1.162 1.047 2.473 1.047 3.933s-.349 2.77-1.047 3.933a7.447 7.447 0 01-2.886 2.742c-1.225.652-2.6.978-4.125.978zm0-2.424c.997 0 1.895-.22 2.693-.659a4.954 4.954 0 001.881-1.87c.456-.808.684-1.708.684-2.7 0-.992-.228-1.885-.684-2.679a4.763 4.763 0 00-1.881-1.87c-.798-.454-1.696-.68-2.693-.68-.997 0-1.895.226-2.693.68a4.763 4.763 0 00-1.881 1.87c-.456.794-.684 1.687-.684 2.679 0 .992.228 1.892.684 2.7a4.954 4.954 0 001.881 1.87c.798.44 1.696.66 2.693.66z" fill="#00CCC0"/><path d="M156.011 24.12c.64.236 1.135.58 1.486 1.031.351.452.526.996.526 1.632 0 .944-.392 1.678-1.176 2.201-.784.513-1.919.77-3.405.77h-6.098V18.978h5.788c1.445 0 2.533.257 3.266.77.743.513 1.114 1.195 1.114 2.047 0 .503-.129.955-.387 1.355-.247.4-.619.723-1.114.97zm-5.077-2.602v1.601h1.703c.794 0 1.192-.267 1.192-.8 0-.534-.398-.8-1.192-.8h-1.703zm2.198 5.696c.805 0 1.207-.282 1.207-.847 0-.564-.402-.846-1.207-.846h-2.198v1.693h2.198zM164.499 30c-1.661 0-2.956-.446-3.885-1.34-.928-.892-1.392-2.144-1.392-3.755v-5.927h3.652v5.82c0 .79.139 1.364.418 1.723.289.36.702.539 1.238.539.537 0 .944-.18 1.223-.539.289-.359.433-.934.433-1.724v-5.819h3.591v5.927c0 1.611-.464 2.863-1.393 3.756-.929.893-2.224 1.34-3.885 1.34zm6.952-11.022h3.653v10.776h-3.653V18.978zm5.411 0h3.653v7.959h4.891v2.817h-8.544V18.978zm9.553 0h5.339c1.207 0 2.27.22 3.189.662.928.431 1.645 1.052 2.151 1.863.516.81.774 1.765.774 2.863s-.258 2.053-.774 2.863c-.506.811-1.223 1.437-2.151 1.878-.919.431-1.982.647-3.189.647h-5.339V18.978zm5.184 7.943c.785 0 1.409-.22 1.873-.662.475-.451.712-1.082.712-1.893 0-.81-.237-1.437-.712-1.878-.464-.451-1.088-.677-1.873-.677h-1.532v5.11h1.532zm16.61.093v2.74h-9.008V18.978h8.807v2.74h-5.216v1.263h4.581v2.616h-4.581v1.417h5.417zm6.049.03h-.99v2.71h-3.653V18.978h5.216c1.001 0 1.873.164 2.616.493.743.328 1.315.8 1.718 1.416.402.616.603 1.334.603 2.155 0 .77-.175 1.442-.526 2.017-.351.575-.856 1.031-1.517 1.37l2.276 3.325H216.1l-1.842-2.71zm1.827-4.002c0-.4-.124-.708-.372-.923-.247-.226-.619-.34-1.114-.34h-1.331v2.526h1.331c.495 0 .867-.108 1.114-.324.248-.226.372-.539.372-.939z" fill="#FAFAFA"/></g><defs><clipPath id="clip0_545:18055"><path fill="#fff" d="M0 0h220v30H0z"/></clipPath></defs></svg>
